X: 4
T: Miss McLeod's
R: reel
M: 4/4
L: 1/8
K: Gmaj
|:GABc d2BG|ABBA B2BA|GABc d2BG|AD~D2 ABBA|GABc d2BG|ABBA B2Bd|e2ed ^cdef|gedB AdBA:||:G2g2 edeg|ABBA B2BA|G2g2 edeg|~a3b ageg|dggf edeg|ABBA B2Bd|e2ed ^cdef|gedB AdBA:|


Tune 75	Setting 12553

